X:64
T:Ungaresca
S:the Empty Pocket Band (Leeds)
R:Other
O:S.E.Europe
M:4/4
K:D
d2d2 e2d2|d2A2 A2Bc|d2d2 e2d2|A4A4:|
|:f2f2 f2ef|g2f2 e2d2|f2f2 f2ef|g2f2 e2g2\
|1 f2d2 e2dc|d4 d4 :|2 fed2 e2dc|d4 d4 ||
